svgs/sharp-solid/gun-squirt.svg

<svg xmlns="http://www.w3.org/2000/svg" viewBox="0 0 576 512"><!--! Font Awesome Pro 6.4.2 by @fontawesome - https://fontawesome.com License - https://fontawesome.com/license (Commercial License) Copyright 2023 Fonticons, Inc. --><path d="M128 32V56v8H512h32V96v32h32v64H544v32 32H512 248l-18 72h42V312 288h48v24 40 40 24H272V392 376H218L192 480H32L88.1 255.7C38.8 251.7 0 210.4 0 160c0-47.6 34.6-87.1 80-94.7V56 32h48zm352 96H64v64H480V128z"/></svg>

<svg xmlns="http://www.w3.org/2000/svg" viewBox="0 0 576 512"><!--! Font Awesome Pro 6.6.0 by @fontawesome - https://fontawesome.com License - https://fontawesome.com/license (Commercial License) Copyright 2024 Fonticons, Inc. --><path d="M128 32l0 24 0 8 384 0 32 0 0 32 0 32 32 0 0 64-32 0 0 32 0 32-32 0-264 0-18 72 42 0 0-16 0-24 48 0 0 24 0 40 0 40 0 24-48 0 0-24 0-16-54 0L192 480 32 480 88.1 255.7C38.8 251.7 0 210.4 0 160c0-47.6 34.6-87.1 80-94.7L80 56l0-24 48 0zm352 96L64 128l0 64 416 0 0-64z"/></svg>
